X: 41151
T: Trippin On Green Mushrooms
R: hornpipe
M: 4/4
K: Dmajor
|:"D"(3ded d>c B>A F>D|"G" E>F E>D E>D F2|"D"D>F A>f e>d B>A|"G" (3efe e>d "A" e4|
"D"(3ded d>c B>A F>D|"G" E>F E>D E>D F2|"D"D>F A>b a>f e>d|"A" (3efe d>c "D"d4:|
|:"D"F>A d>A f>e d>A|F>A d>A f>e d>A|F>A d>A f>e d>A|"G"g>f g>f "A"e4|
"D"F>A d>A f>e d>A|F>A d>A f>e d>A|F>A d>A f>e d>c|"A"(3ded d>c "D"d4:|

